docs/img/icon1/mark-star.svg

<svg xmlns="http://www.w3.org/2000/svg" width="31" height="30" viewBox="0 0 31 30" fill="none">
  <path d="M20.288 0.311523L19.712 9.14352L27.904 5.87952L30.848 15.0955L22.336 17.2715L27.904 23.9915L20.096 29.6875L15.424 22.2635L10.752 29.6875L2.944 23.9915L8.512 17.2715L0 15.0955L2.944 5.87952L11.2 9.14352L10.624 0.311523H20.288Z" fill="#232323"/>
</svg>

<svg xmlns="http://www.w3.org/2000/svg" width="31" height="30" fill="none"><path d="M20.288.312l-.576 8.832 8.192-3.264 2.944 9.215-8.512 2.176 5.568 6.72-7.808 5.697-4.672-7.424-4.672 7.424-7.808-5.697 5.568-6.72L0 15.095 2.944 5.88 11.2 9.144 10.624.312h9.664z" fill="#232323"/></svg>
